public/yhm-favicon.svg

<?xml version="1.0" encoding="UTF-8" standalone="no"?>
<svg version="1.1" width="1080" height="1080" viewBox="0 0 1080 1080" xml:space="preserve" id="svg1"
   sodipodi:docname="yhm-logo.svg" inkscape:version="1.3.2 (091e20e, 2023-11-25, custom)"
   xmlns:inkscape="http://www.inkscape.org/namespaces/inkscape"
   xmlns:sodipodi="http://sodipodi.sourceforge.net/DTD/sodipodi-0.dtd" xmlns="http://www.w3.org/2000/svg"
   xmlns:svg="http://www.w3.org/2000/svg">
   <sodipodi:namedview id="namedview1" pagecolor="#ffffff" bordercolor="#000000" borderopacity="0.25"
      inkscape:showpageshadow="2" inkscape:pageopacity="0.0" inkscape:pagecheckerboard="0" inkscape:deskcolor="#d1d1d1"
      inkscape:zoom="0.76018519" inkscape:cx="540" inkscape:cy="540" inkscape:window-width="1920"
      inkscape:window-height="1017" inkscape:window-x="-8" inkscape:window-y="-8" inkscape:window-maximized="1"
      inkscape:current-layer="svg1" />
   <desc id="desc1">Created with Fabric.js 5.2.4</desc>
   <defs id="defs1">
   </defs>


   <g transform="matrix(2.3619815,0,0,2.2813013,540.65791,538.68466)" id="svg" style="display:inline">
      <path
         style="opacity:1;fill:#CE6A83;fill-rule:nonzero;stroke:none;stroke-width:1;stroke-linecap:butt;stroke-linejoin:miter;stroke-miterlimit:4;stroke-dasharray:none;stroke-dashoffset:0"
         transform="translate(-500.09,-536.73)"
         d="m 336,309.415 v 5.414 l 7.75,0.65 c 37.737,3.163 56.265,16.644 69.317,50.434 4.777,12.367 24.469,70.312 26.342,77.512 l 1.281,4.925 2.655,-3.907 c 1.46,-2.149 2.655,-4.756 2.655,-5.794 0,-1.038 1.603,-4.527 3.563,-7.753 4.3,-7.078 28.316,-30.22 35.223,-33.941 5.354,-2.885 5.268,-2.015 1.543,-15.455 C 474.566,339.06 465.404,320.778 451.115,311.236 440.7,304.281 438.077,304 383.553,304 H 336 v 5.415 M 567,309 v 5 h 4.542 c 6.493,0 18.762,2.717 25.275,5.598 7.464,3.301 11.316,6.378 15.061,12.031 3.109,4.694 4.434,8.509 1.671,4.812 -0.862,-1.154 -0.388,1.305 1.169,6.059 2.299,7.019 2.652,9.901 2.876,23.5 0.171,10.405 -0.204,17.637 -1.141,22 -2.548,11.862 -2.549,11.879 -0.957,8.5 7.507,-15.929 -15.225,53.987 -34.313,105.537 -15.011,40.54 -31.162,78.976 -43.699,103.994 -31.418,62.699 -72.453,111.442 -109.984,130.643 -18.84,9.639 -34.38,13.009 -55.439,12.023 -41.499,-1.943 -71.417,-23.401 -80.131,-57.471 -2.4,-9.382 -2.555,-24.014 -0.346,-32.582 3.571,-13.849 13.737,-26.848 26.148,-33.435 7.941,-4.214 8.93,-5.666 3.2,-4.698 -22.414,3.787 -39.53,21.033 -44.359,44.697 -3.679,18.027 0.024,37.349 10.564,55.127 14.065,23.721 38.259,39.844 71.025,47.333 11.313,2.585 35.4,2.339 48.572,-0.496 28.004,-6.029 53.133,-19.772 75.945,-41.536 5.686,-5.425 13.339,-13.525 17.007,-18 7.996,-9.757 13.443,-15.636 14.485,-15.636 0.421,0 1.959,3.938 3.418,8.75 1.459,4.813 3.94,11.606 5.513,15.096 6.277,13.929 19.002,27.808 31.532,34.393 13.093,6.88 14.395,7.028 67.866,7.756 l 48,0.654 -48.5,-0.137 c -53.181,-0.15 -53.092,-0.141 -66.75,-6.498 -7.564,-3.52 -8.314,-3.094 -1.041,0.592 15.243,7.724 22.265,8.513 74.041,8.319 L 671,760.764 v -5.743 -5.742 l -5.25,-0.631 c -2.887,-0.347 -7.05,-0.64 -9.25,-0.652 -5.457,-0.03 -20.752,-3.313 -27.707,-5.946 -8.072,-3.057 -19.702,-10.922 -27.121,-18.341 -7.992,-7.992 -17.276,-22.023 -22.591,-34.141 -4.079,-9.301 -13.172,-36.667 -19.106,-57.502 l -3.094,-10.862 5.44,-10.852 c 23.78,-47.442 41.429,-92.64 73.156,-187.352 11.146,-33.275 21.622,-63.487 23.281,-67.137 8.656,-19.058 22.662,-32.374 39.242,-37.309 4.837,-1.44 22.343,-4.532 25.75,-4.548 0.833,-0.004 1.25,-1.676 1.25,-5.006 v -5 h -79 -79 v 5 m -171.479,31.25 c 2.673,3.163 5.015,5.75 5.205,5.75 1.005,0 -2.091,-3.993 -5.817,-7.5 l -4.249,-4 4.861,5.75 m 91.332,72.772 c -7.918,5.251 -22.397,18.056 -29.94,26.478 -16.017,17.885 -29.731,40.937 -36.298,61.01 -11.899,36.381 -4.733,70.876 19.554,94.118 10.497,10.045 23.046,15.338 36.422,15.36 8.331,0.014 13.062,-1.293 23.849,-6.59 10.662,-5.234 17.318,-11.501 22.451,-21.137 2.543,-4.774 3.9,-6.606 3.527,-4.761 -2.181,10.781 -12.096,22.507 -23.757,28.095 -3.907,1.873 -7.905,3.405 -8.883,3.405 -0.978,0 -1.778,0.266 -1.778,0.591 0,0.326 2.941,9.888 6.537,21.25 3.595,11.363 6.673,21.109 6.84,21.659 0.754,2.479 17.549,-25.579 28.258,-47.21 l 11.713,-23.658 -1.798,-7.066 C 542.56,570.68 536.395,549.5 529.848,527.5 512.971,470.781 508.437,455.502 506.03,447.25 c -1.163,-3.987 -2.507,-7.25 -2.987,-7.25 -1.658,0 -16.161,15.147 -21.842,22.813 -13.93,18.798 -19.22,35.433 -17.126,53.858 0.592,5.209 3.109,15.199 6.583,26.131 3.094,9.734 7.721,24.448 10.283,32.698 5.362,17.266 4.54,16.58 16.82,14.043 9.325,-1.927 16.23,-5.323 22.149,-10.893 3.656,-3.441 4.054,-3.637 2.331,-1.15 -3.634,5.246 -10.563,11.279 -16.241,14.14 -4.673,2.355 -6.639,2.753 -13.074,2.649 -22.174,-0.359 -38.477,-9.367 -47.253,-26.107 -5.566,-10.618 -6.98,-17.648 -6.371,-31.682 0.626,-14.447 2.316,-21.275 8.046,-32.5 2.386,-4.675 8.357,-16.375 13.269,-26 9.616,-18.844 12.547,-23.555 21.616,-34.733 5.979,-7.371 15.347,-15.969 16.905,-15.517 0.474,0.138 0.862,10e-4 0.862,-0.304 0,-0.745 -5.107,-18.883 -5.4,-19.178 -0.126,-0.127 -3.613,2.012 -7.747,4.754 M 335.191,592.713 c -1.825,0.349 -2.244,0.996 -2,3.089 0.287,2.455 0.828,2.734 7.447,3.837 6.738,1.123 18.209,5.437 24.862,9.349 7.47,4.393 12.591,6.968 12.019,6.044 -0.363,-0.589 0.021,-0.762 0.923,-0.416 0.851,0.327 1.301,0.991 1,1.477 -0.3,0.486 0.077,0.645 0.838,0.353 1.906,-0.731 12.467,7.23 17.813,13.428 5.982,6.934 11.639,16.484 13.7,23.126 2.637,8.498 2.313,22.651 -0.733,31.95 -2.773,8.47 -10.41,20.545 -15.807,24.993 -7.907,6.518 0.583,4.277 10.019,-2.645 8.638,-6.337 16.764,-20.165 19.787,-33.673 2.055,-9.182 0.801,-25.581 -2.733,-35.743 -7.738,-22.252 -26.833,-39.97 -47.826,-44.378 -6.589,-1.383 -33.385,-1.922 -39.309,-0.791 M 527,728 c 0,0.55 0.45,1 1,1 0.55,0 1,0.627 1,1.393 0,0.766 0.703,1.663 1.563,1.993 1.176,0.451 1.036,-0.141 -0.568,-2.393 C 527.754,726.846 527,726.344 527,728 m 9.017,10.46 c 1.741,2.301 7.393,7.441 10.386,9.444 2.479,1.66 1.978,1.151 -5.886,-5.979 -3.29,-2.984 -5.315,-4.543 -4.5,-3.465"
         stroke-linecap="round" id="path1" />
   </g>
</svg>

<?xml version="1.0" encoding="UTF-8" standalone="no" ?>
<!DOCTYPE svg PUBLIC "-//W3C//DTD SVG 1.1//EN" "http://www.w3.org/Graphics/SVG/1.1/DTD/svg11.dtd">
<svg xmlns="http://www.w3.org/2000/svg" xmlns:xlink="http://www.w3.org/1999/xlink" version="1.1" width="1080"
    height="1080" viewBox="0 0 1080 1080" xml:space="preserve">
    <desc>Created with Fabric.js 5.2.4</desc>
    <defs>
    </defs>
    <g transform="matrix(1 0 0 1 540 540)" id="ab0b4f92-8888-469b-95e2-bd61ec5b45e2">
        <rect
            style="stroke: none; stroke-width: 1; stroke-dasharray: none; stroke-linecap: butt; stroke-dashoffset: 0; stroke-linejoin: miter; stroke-miterlimit: 4; fill: rgb(255,255,255); fill-rule: nonzero; opacity: 1; visibility: hidden;"
            vector-effect="non-scaling-stroke" x="-540" y="-540" rx="0" ry="0" width="1080" height="1080" />
    </g>
    <g transform="matrix(1 0 0 1 540 540)" id="c003bf51-b159-4fb7-a70a-2b4a6ab51bd2">
    </g>
    <g transform="matrix(2.4 0 0 2.4 540 540)" id="svg">
        <path
            style="stroke: none; stroke-width: 1; stroke-dasharray: none; stroke-linecap: butt; stroke-dashoffset: 0; stroke-linejoin: miter; stroke-miterlimit: 4; fill: rgb(0,0,0); fill-rule: nonzero; opacity: 1;"
            transform=" translate(-500.09, -536.73)"
            d="M 336 309.415 L 336 314.829 L 343.75 315.479 C 381.487 318.642 400.015 332.123 413.067 365.913 C 417.844 378.28 437.536 436.225 439.409 443.425 L 440.69 448.35 L 443.345 444.443 C 444.805 442.294 446 439.687 446 438.649 C 446 437.611 447.603 434.122 449.563 430.896 C 453.863 423.818 477.879 400.676 484.786 396.955 C 490.14 394.07 490.054 394.94 486.329 381.5 C 474.566 339.06 465.404 320.778 451.115 311.236 C 440.7 304.281 438.077 304 383.553 304 L 336 304 L 336 309.415 M 567 309 L 567 314 L 571.542 314 C 578.035 314 590.304 316.717 596.817 319.598 C 604.281 322.899 608.133 325.976 611.878 331.629 C 614.987 336.323 616.312 340.138 613.549 336.441 C 612.687 335.287 613.161 337.746 614.718 342.5 C 617.017 349.519 617.37 352.401 617.594 366 C 617.765 376.405 617.39 383.637 616.453 388 C 613.905 399.862 613.904 399.879 615.496 396.5 C 623.003 380.571 600.271 450.487 581.183 502.037 C 566.172 542.577 550.021 581.013 537.484 606.031 C 506.066 668.73 465.031 717.473 427.5 736.674 C 408.66 746.313 393.12 749.683 372.061 748.697 C 330.562 746.754 300.644 725.296 291.93 691.226 C 289.53 681.844 289.375 667.212 291.584 658.644 C 295.155 644.795 305.321 631.796 317.732 625.209 C 325.673 620.995 326.662 619.543 320.932 620.511 C 298.518 624.298 281.402 641.544 276.573 665.208 C 272.894 683.235 276.597 702.557 287.137 720.335 C 301.202 744.056 325.396 760.179 358.162 767.668 C 369.475 770.253 393.562 770.007 406.734 767.172 C 434.738 761.143 459.867 747.4 482.679 725.636 C 488.365 720.211 496.018 712.111 499.686 707.636 C 507.682 697.879 513.129 692 514.171 692 C 514.592 692 516.13 695.938 517.589 700.75 C 519.048 705.563 521.529 712.356 523.102 715.846 C 529.379 729.775 542.104 743.654 554.634 750.239 C 567.727 757.119 569.029 757.267 622.5 757.995 L 670.5 758.649 L 622 758.512 C 568.819 758.362 568.908 758.371 555.25 752.014 C 547.686 748.494 546.936 748.92 554.209 752.606 C 569.452 760.33 576.474 761.119 628.25 760.925 L 671 760.764 L 671 755.021 L 671 749.279 L 665.75 748.648 C 662.863 748.301 658.7 748.008 656.5 747.996 C 651.043 747.966 635.748 744.683 628.793 742.05 C 620.721 738.993 609.091 731.128 601.672 723.709 C 593.68 715.717 584.396 701.686 579.081 689.568 C 575.002 680.267 565.909 652.901 559.975 632.066 L 556.881 621.204 L 562.321 610.352 C 586.101 562.91 603.75 517.712 635.477 423 C 646.623 389.725 657.099 359.513 658.758 355.863 C 667.414 336.805 681.42 323.489 698 318.554 C 702.837 317.114 720.343 314.022 723.75 314.006 C 724.583 314.002 725 312.33 725 309 L 725 304 L 646 304 L 567 304 L 567 309 M 395.521 340.25 C 398.194 343.413 400.536 346 400.726 346 C 401.731 346 398.635 342.007 394.909 338.5 L 390.66 334.5 L 395.521 340.25 M 486.853 413.022 C 478.935 418.273 464.456 431.078 456.913 439.5 C 440.896 457.385 427.182 480.437 420.615 500.51 C 408.716 536.891 415.882 571.386 440.169 594.628 C 450.666 604.673 463.215 609.966 476.591 609.988 C 484.922 610.002 489.653 608.695 500.44 603.398 C 511.102 598.164 517.758 591.897 522.891 582.261 C 525.434 577.487 526.791 575.655 526.418 577.5 C 524.237 588.281 514.322 600.007 502.661 605.595 C 498.754 607.468 494.756 609 493.778 609 C 492.8 609 492 609.266 492 609.591 C 492 609.917 494.941 619.479 498.537 630.841 C 502.132 642.204 505.21 651.95 505.377 652.5 C 506.131 654.979 522.926 626.921 533.635 605.29 L 545.348 581.632 L 543.55 574.566 C 542.56 570.68 536.395 549.5 529.848 527.5 C 512.971 470.781 508.437 455.502 506.03 447.25 C 504.867 443.263 503.523 440 503.043 440 C 501.385 440 486.882 455.147 481.201 462.813 C 467.271 481.611 461.981 498.246 464.075 516.671 C 464.667 521.88 467.184 531.87 470.658 542.802 C 473.752 552.536 478.379 567.25 480.941 575.5 C 486.303 592.766 485.481 592.08 497.761 589.543 C 507.086 587.616 513.991 584.22 519.91 578.65 C 523.566 575.209 523.964 575.013 522.241 577.5 C 518.607 582.746 511.678 588.779 506 591.64 C 501.327 593.995 499.361 594.393 492.926 594.289 C 470.752 593.93 454.449 584.922 445.673 568.182 C 440.107 557.564 438.693 550.534 439.302 536.5 C 439.928 522.053 441.618 515.225 447.348 504 C 449.734 499.325 455.705 487.625 460.617 478 C 470.233 459.156 473.164 454.445 482.233 443.267 C 488.212 435.896 497.58 427.298 499.138 427.75 C 499.612 427.888 500 427.751 500 427.446 C 500 426.701 494.893 408.563 494.6 408.268 C 494.474 408.141 490.987 410.28 486.853 413.022 M 335.191 592.713 C 333.366 593.062 332.947 593.709 333.191 595.802 C 333.478 598.257 334.019 598.536 340.638 599.639 C 347.376 600.762 358.847 605.076 365.5 608.988 C 372.97 613.381 378.091 615.956 377.519 615.032 C 377.156 614.443 377.54 614.27 378.442 614.616 C 379.293 614.943 379.743 615.607 379.442 616.093 C 379.142 616.579 379.519 616.738 380.28 616.446 C 382.186 615.715 392.747 623.676 398.093 629.874 C 404.075 636.808 409.732 646.358 411.793 653 C 414.43 661.498 414.106 675.651 411.06 684.95 C 408.287 693.42 400.65 705.495 395.253 709.943 C 387.346 716.461 395.836 714.22 405.272 707.298 C 413.91 700.961 422.036 687.133 425.059 673.625 C 427.114 664.443 425.86 648.044 422.326 637.882 C 414.588 615.63 395.493 597.912 374.5 593.504 C 367.911 592.121 341.115 591.582 335.191 592.713 M 527 728 C 527 728.55 527.45 729 528 729 C 528.55 729 529 729.627 529 730.393 C 529 731.159 529.703 732.056 530.563 732.386 C 531.739 732.837 531.599 732.245 529.995 729.993 C 527.754 726.846 527 726.344 527 728 M 536.017 738.46 C 537.758 740.761 543.41 745.901 546.403 747.904 C 548.882 749.564 548.381 749.055 540.517 741.925 C 537.227 738.941 535.202 737.382 536.017 738.46"
            stroke-linecap="round" />
    </g>
</svg>
